X: 1
T: Opdalsril
R: reel
R: reel
Z: 2009 John Chambers <jc:trillian.mit.edu>
S: printed MS of unknown origin
M: 2/4
L: 1/16
K: F
C2 | "F"F2Ac fcAc | "C7"fege "F"fcAF | "F"fgag fcAF | "C7"kE2kc2kc2
C2 | "F"F2Ac fcAc | "C7"fege "F"fcAF | "C7"=Bcde fefd | "F"kc2kc2kc2 :|
|: zg | "C7"bgec Bceg | "F"afcA F2fa | "C7"gfef gfed | "F"kc2kc2kc2
y2 A2 | "Bb"B2df bfdB | "F"A2cf afcA | "C7"Gceg bgeg | "F"kf2ka2kf2 :|
